status/16/network-offline.svg

<?xml version="1.0" encoding="UTF-8" standalone="no"?>
<svg
   xmlns:dc="http://purl.org/dc/elements/1.1/"
   xmlns:cc="http://creativecommons.org/ns#"
   xmlns:rdf="http://www.w3.org/1999/02/22-rdf-syntax-ns#"
   xmlns:svg="http://www.w3.org/2000/svg"
   xmlns="http://www.w3.org/2000/svg"
   xmlns:sodipodi="http://sodipodi.sourceforge.net/DTD/sodipodi-0.dtd"
   xmlns:inkscape="http://www.inkscape.org/namespaces/inkscape"
   height="16"
   width="16.003"
   version="1.1"
   id="svg6"
   sodipodi:docname="network-offline-symbolic.svg"
   inkscape:version="0.92.2 (unknown)">
  <metadata
     id="metadata12">
    <rdf:RDF>
      <cc:Work
         rdf:about="">
        <dc:format>image/svg+xml</dc:format>
        <dc:type
           rdf:resource="http://purl.org/dc/dcmitype/StillImage" />
        <dc:title></dc:title>
      </cc:Work>
    </rdf:RDF>
  </metadata>
  <defs
     id="defs10" />
  <sodipodi:namedview
     pagecolor="#F7F7F7"
     bordercolor="#F7F7F7"
     borderopacity="1"
     objecttolerance="10"
     gridtolerance="10"
     guidetolerance="10"
     inkscape:pageopacity="0"
     inkscape:pageshadow="2"
     inkscape:window-width="785"
     inkscape:window-height="480"
     id="namedview8"
     showgrid="false"
     inkscape:zoom="14.75"
     inkscape:cx="8.0015001"
     inkscape:cy="8"
     inkscape:window-x="0"
     inkscape:window-y="34"
     inkscape:window-maximized="0"
     inkscape:current-layer="svg6" />
  <g
     color="#000"
     transform="translate(-1072.998 207)"
     id="g4">
    <path
       d="M1079.426-206c-.45.005-.778-.012-1.047.137a.676.676 0 0 0-.3.357c-.06.157-.08.343-.08.578v1.858c0 .235.021.42.08.576a.677.677 0 0 0 .3.357c.269.148.597.132 1.047.137h.572v2h-3.5c-.666 0-1.137.408-1.322.777-.185.37-.178.723-.178.723v1.5h-.572c-.45.005-.778-.012-1.047.137a.676.676 0 0 0-.3.357c-.06.157-.08.343-.08.578v1.858c0 .235.021.42.08.576a.677.677 0 0 0 .3.357c.269.148.597.132 1.047.137h2.144c.45-.005.779.012 1.047-.137.135-.074.24-.2.3-.357.058-.157.08-.341.08-.576v-1.858c0-.235-.022-.421-.08-.578a.673.673 0 0 0-.3-.357c-.268-.15-.597-.132-1.046-.137h-.573v-1.5s.01-.145.072-.275c.065-.131.094-.225.428-.225h8c.333 0 .362.094.428.225.065.13.072.275.072.275v1.5h-.573c-.449.005-.778-.012-1.046.137a.676.676 0 0 0-.301.357c-.06.157-.08.343-.08.578v1.858c0 .235.022.42.08.576a.677.677 0 0 0 .3.357c.27.148.598.132 1.047.137h2.145c.45-.005.778.012 1.047-.137.134-.074.24-.2.299-.357.059-.157.08-.341.08-.576v-1.858c0-.235-.021-.421-.08-.578a.673.673 0 0 0-.3-.357c-.268-.15-.597-.132-1.046-.137h-.572v-1.5s.01-.353-.178-.723a1.485 1.485 0 0 0-1.322-.777h-3.5v-2h.572c.45-.005.778.012 1.047-.137.134-.074.24-.2.299-.357.059-.157.08-.341.08-.576v-1.858c0-.235-.021-.421-.08-.578a.673.673 0 0 0-.3-.357c-.268-.15-.597-.132-1.046-.137zm-.426 1h3v2h-3zm-5 9h3v2h-3zm10 0h3v2h-3z"
       fill='#F7F7F7'
       font-family="sans-serif"
       font-weight="400"
       opacity=".5"
       overflow="visible"
       style="line-height:normal;font-variant-ligatures:normal;font-variant-position:normal;font-variant-caps:normal;font-variant-numeric:normal;font-variant-alternates:normal;font-feature-settings:normal;text-indent:0;text-align:start;text-decoration-line:none;text-decoration-style:solid;text-decoration-color:#000;text-transform:none;text-orientation:mixed;shape-padding:0;isolation:auto;mix-blend-mode:normal;marker:none"
       white-space="normal"
       id="path2" />
  </g>
</svg>

<svg xmlns="http://www.w3.org/2000/svg" width="16.003" height="16" version="1.1">
 <g transform="translate(-1073,207)">
  <path style="opacity:0.5;fill:#f7f7f7" d="M 1079.4,-206 C 1079,-206 1078.6,-206.01 1078.4,-205.86 A 0.676,0.676 0 0 0 1078.1,-205.51 C 1078,-205.35 1078,-205.16 1078,-204.93 V -203.07 C 1078,-202.83 1078,-202.65 1078.1,-202.49 A 0.677,0.677 0 0 0 1078.4,-202.14 C 1078.6,-201.99 1079,-202 1079.4,-202 H 1080 V -200 H 1076.5 C 1075.8,-200 1075.4,-199.59 1075.2,-199.22 1075,-198.85 1075,-198.5 1075,-198.5 V -197 H 1074.4 C 1074,-197 1073.6,-197.01 1073.4,-196.86 A 0.676,0.676 0 0 0 1073.1,-196.51 C 1073,-196.35 1073,-196.16 1073,-195.93 V -194.07 C 1073,-193.83 1073,-193.65 1073.1,-193.49 A 0.677,0.677 0 0 0 1073.4,-193.14 C 1073.6,-192.99 1074,-193 1074.4,-193 H 1076.6 C 1077,-193 1077.3,-192.99 1077.6,-193.14 1077.8,-193.21 1077.9,-193.34 1077.9,-193.49 1078,-193.65 1078,-193.84 1078,-194.07 V -195.93 C 1078,-196.16 1078,-196.35 1077.9,-196.51 A 0.673,0.673 0 0 0 1077.6,-196.86 C 1077.3,-197.01 1077,-197 1076.6,-197 H 1076 V -198.5 C 1076,-198.5 1076,-198.65 1076.1,-198.78 1076.1,-198.91 1076.2,-199 1076.5,-199 H 1084.5 C 1084.8,-199 1084.9,-198.91 1084.9,-198.78 1085,-198.65 1085,-198.5 1085,-198.5 V -197 H 1084.4 C 1084,-197 1083.6,-197.01 1083.4,-196.86 A 0.676,0.676 0 0 0 1083.1,-196.51 C 1083,-196.35 1083,-196.16 1083,-195.93 V -194.07 C 1083,-193.83 1083,-193.65 1083.1,-193.49 A 0.677,0.677 0 0 0 1083.4,-193.14 C 1083.6,-192.99 1084,-193 1084.4,-193 H 1086.6 C 1087,-193 1087.3,-192.99 1087.6,-193.14 1087.8,-193.21 1087.9,-193.34 1087.9,-193.49 1088,-193.65 1088,-193.84 1088,-194.07 V -195.93 C 1088,-196.16 1088,-196.35 1087.9,-196.51 A 0.673,0.673 0 0 0 1087.6,-196.86 C 1087.3,-197.01 1087,-197 1086.6,-197 H 1086 V -198.5 C 1086,-198.5 1086,-198.85 1085.8,-199.22 A 1.485,1.485 0 0 0 1084.5,-200 H 1081 V -202 H 1081.6 C 1082,-202 1082.3,-201.99 1082.6,-202.14 1082.8,-202.21 1082.9,-202.34 1082.9,-202.49 1083,-202.65 1083,-202.84 1083,-203.07 V -204.93 C 1083,-205.16 1083,-205.35 1082.9,-205.51 A 0.673,0.673 0 0 0 1082.6,-205.86 C 1082.3,-206.01 1082,-206 1081.6,-206 Z M 1079,-205 H 1082 V -203 H 1079 Z M 1074,-196 H 1077 V -194 H 1074 Z M 1084,-196 H 1087 V -194 H 1084 Z"/>
 </g>
</svg>
